svg/700/outlined/stream-fill.svg

<svg xmlns="http://www.w3.org/2000/svg" width="48" height="48" viewBox="0 -960 960 960"><path d="M130-413q-27.01 0-47.01-19.99Q63-452.99 63-480q0-27.01 19.99-47.01Q102.99-547 130-547q27.01 0 47.01 19.99Q197-507.01 197-480q0 27.01-19.99 47.01Q157.01-413 130-413Zm73 276-67-67 197-197 67 67-197 197Zm130-424L137-757l67-67 196 196-67 67ZM480-63q-27.01 0-47.01-19.99Q413-102.99 413-130q0-27.01 19.99-47.01Q452.99-197 480-197q27.01 0 47.01 19.99Q547-157.01 547-130q0 27.01-19.99 47.01Q507.01-63 480-63Zm0-700q-27.01 0-47.01-19.99Q413-802.99 413-830q0-27.01 19.99-47.01Q452.99-897 480-897q27.01 0 47.01 19.99Q547-857.01 547-830q0 27.01-19.99 47.01Q507.01-763 480-763Zm147 202-67-67 196-196 67 67-196 196Zm129 423L560-334l67-67 196 196-67 67Zm74-275q-27.01 0-47.01-19.99Q763-452.99 763-480q0-27.01 19.99-47.01Q802.99-547 830-547q27.01 0 47.01 19.99Q897-507.01 897-480q0 27.01-19.99 47.01Q857.01-413 830-413Z"/></svg>

<svg xmlns="http://www.w3.org/2000/svg" width="48" height="48" viewBox="0 -960 960 960"><path d="M83-433q-20-20-20-47t20-47q20-20 47-20t47 20q20 20 20 47t-20 47q-20 20-47 20t-47-20Zm120 296-67-67 197-197 67 67-197 197Zm130-424L137-757l67-67 196 196-67 67ZM433-83q-20-20-20-47t20-47q20-20 47-20t47 20q20 20 20 47t-20 47q-20 20-47 20t-47-20Zm0-700q-20-20-20-47t20-47q20-20 47-20t47 20q20 20 20 47t-20 47q-20 20-47 20t-47-20Zm194 222-67-67 196-196 67 67-196 196Zm129 423L560-334l67-67 196 196-67 67Zm27-295q-20-20-20-47t20-47q20-20 47-20t47 20q20 20 20 47t-20 47q-20 20-47 20t-47-20Z"/></svg>
